gama.ui.shared/icons_svg/dark/prefs/prefs.simulations2.svg

<svg height="25" viewBox="-706.774 -3072.384 25 25" width="25" xmlns="http://www.w3.org/2000/svg"><g fill="none"><path d="m-697.8741-3071.8843h7.2c2.4 0 3.6 0 5.04.48 1.2.48 2.4 1.68 2.88 2.88.48 1.44.48 2.64.48 5.04v7.2c0 2.4 0 3.6-.48 5.04-.48 1.2-1.68 2.4-2.88 2.88-1.44.48-2.64.48-5.04.48h-7.2c-2.4 0-3.6 0-5.04-.48-1.2-.48-2.4-1.68-2.88-2.88-.48-1.44-.48-2.64-.48-5.04v-7.2c0-2.4 0-3.6.48-5.04.48-1.2 1.68-2.4 2.88-2.88 1.44-.48 2.64-.48 5.04-.48m0 0" fill="#91baff"/><path d="m-697.8741-3071.8843h7.2c2.4 0 3.6 0 5.04.48 1.2.48 2.4 1.68 2.88 2.88.48 1.44.48 2.64.48 5.04v7.2c0 2.4 0 3.6-.48 5.04-.48 1.2-1.68 2.4-2.88 2.88-1.44.48-2.64.48-5.04.48h-7.2c-2.4 0-3.6 0-5.04-.48-1.2-.48-2.4-1.68-2.88-2.88-.48-1.44-.48-2.64-.48-5.04v-7.2c0-2.4 0-3.6.48-5.04.48-1.2 1.68-2.4 2.88-2.88 1.44-.48 2.64-.48 5.04-.48m0 0" stroke="#5c76a2" stroke-linecap="round" stroke-linejoin="round" stroke-width=".25"/><path d="m-699.8261-3055.44c1.3346 1.6624 3.3632 2.6668 5.5609 2.6668 3.7636 0 6.87775-2.9333 7.1002-6.6668.0178-.2487.2224-.4354.47156-.4176.24914.0176.43594.2222.41814.4711-.258 4.2045-3.7547 7.5022-7.9899 7.5022-2.4557 0-4.72455-1.12-6.2282-2.9689v2.5245c0 .2487-.1958.4444-.4449.4444s-.4449-.1957-.4449-.4444v-3.5556c0-.2489.1958-.4444.4449-.4444h3.559c.2491 0 .4449.1955.4449.4444s-.1958.4443-.4449.4443zm11.1129-8.8887c-1.3346-1.6623-3.3632-2.6667-5.5609-2.6667-3.7814 0-6.8955 2.9511-7.1091 6.7022-.0178.2489-.2224.4356-.4715.4178-.2492-.0178-.436-.2222-.4182-.4711.2491-4.2222 3.7547-7.5378 8.0077-7.5378 2.4557 0 4.7246 1.12 6.2282 2.9689v-2.5246c0-.2487.1958-.4443.4449-.4443s.4449.1956.4449.4443v3.5557c0 .2489-.1958.4443-.4449.4443h-3.559c-.2491 0-.44485-.1954-.44485-.4443s.19575-.4444.44485-.4444h2.4468z" fill="#000"/></g></svg>

<?xml version="1.0" encoding="UTF-8" standalone="no"?>
<!DOCTYPE svg PUBLIC "-//W3C//DTD SVG 1.1//EN" "http://www.w3.org/Graphics/SVG/1.1/DTD/svg11.dtd">
<svg xmlns="http://www.w3.org/2000/svg" xmlns:xl="http://www.w3.org/1999/xlink" version="1.1" xmlns:dc="http://purl.org/dc/elements/1.1/" viewBox="-706.7741 -3072.3843 25 25" width="25" height="25">
  <defs/>
  <g id="SOURCES" stroke-opacity="1" fill="none" stroke="none" fill-opacity="1" stroke-dasharray="none">
    <title>SOURCES</title>
    <g id="SOURCES_Dark">
      <title>Dark</title>
      <g id="Graphic_11126">
        <path d="M -697.8741 -3071.8843 L -690.6741 -3071.8843 C -688.2741 -3071.8843 -687.0741 -3071.8843 -685.6341 -3071.4043 C -684.4341 -3070.9243 -683.2341 -3069.7243 -682.7541 -3068.5243 C -682.2741 -3067.0843 -682.2741 -3065.8843 -682.2741 -3063.4843 L -682.2741 -3056.2843 C -682.2741 -3053.8843 -682.2741 -3052.6843 -682.7541 -3051.2443 C -683.2341 -3050.0443 -684.4341 -3048.8443 -685.6341 -3048.3643 C -687.0741 -3047.8843 -688.2741 -3047.8843 -690.6741 -3047.8843 L -697.8741 -3047.8843 C -700.2741 -3047.8843 -701.4741 -3047.8843 -702.9141 -3048.3643 C -704.1141 -3048.8443 -705.3141 -3050.0443 -705.7941 -3051.2443 C -706.2741 -3052.6843 -706.2741 -3053.8843 -706.2741 -3056.2843 L -706.2741 -3063.4843 C -706.2741 -3065.8843 -706.2741 -3067.0843 -705.7941 -3068.5243 C -705.3141 -3069.7243 -704.1141 -3070.9243 -702.9141 -3071.4043 C -701.4741 -3071.8843 -700.2741 -3071.8843 -697.8741 -3071.8843 M -697.8741 -3071.8843" fill="#91baff"/>
        <path d="M -697.8741 -3071.8843 L -690.6741 -3071.8843 C -688.2741 -3071.8843 -687.0741 -3071.8843 -685.6341 -3071.4043 C -684.4341 -3070.9243 -683.2341 -3069.7243 -682.7541 -3068.5243 C -682.2741 -3067.0843 -682.2741 -3065.8843 -682.2741 -3063.4843 L -682.2741 -3056.2843 C -682.2741 -3053.8843 -682.2741 -3052.6843 -682.7541 -3051.2443 C -683.2341 -3050.0443 -684.4341 -3048.8443 -685.6341 -3048.3643 C -687.0741 -3047.8843 -688.2741 -3047.8843 -690.6741 -3047.8843 L -697.8741 -3047.8843 C -700.2741 -3047.8843 -701.4741 -3047.8843 -702.9141 -3048.3643 C -704.1141 -3048.8443 -705.3141 -3050.0443 -705.7941 -3051.2443 C -706.2741 -3052.6843 -706.2741 -3053.8843 -706.2741 -3056.2843 L -706.2741 -3063.4843 C -706.2741 -3065.8843 -706.2741 -3067.0843 -705.7941 -3068.5243 C -705.3141 -3069.7243 -704.1141 -3070.9243 -702.9141 -3071.4043 C -701.4741 -3071.8843 -700.2741 -3071.8843 -697.8741 -3071.8843 M -697.8741 -3071.8843" stroke="#5c76a2" stroke-linecap="round" stroke-linejoin="round" stroke-width=".25"/>
      </g>
      <g id="Graphic_11125">
        <path d="M -699.8261 -3055.44 C -698.4915 -3053.7776 -696.4629 -3052.7732 -694.2652 -3052.7732 C -690.5016 -3052.7732 -687.38745 -3055.7065 -687.165 -3059.44 C -687.1472 -3059.6887 -686.9426 -3059.8754 -686.69344 -3059.8576 C -686.4443 -3059.84 -686.2575 -3059.6354 -686.2753 -3059.3865 C -686.5333 -3055.182 -690.03 -3051.8843 -694.2652 -3051.8843 C -696.7209 -3051.8843 -698.98975 -3053.0043 -700.4934 -3054.8532 L -700.4934 -3052.3287 C -700.4934 -3052.08 -700.6892 -3051.8843 -700.9383 -3051.8843 C -701.1874 -3051.8843 -701.3832 -3052.08 -701.3832 -3052.3287 L -701.3832 -3055.8843 C -701.3832 -3056.1332 -701.1874 -3056.3287 -700.9383 -3056.3287 L -697.3793 -3056.3287 C -697.1302 -3056.3287 -696.9344 -3056.1332 -696.9344 -3055.8843 C -696.9344 -3055.6354 -697.1302 -3055.44 -697.3793 -3055.44 Z M -688.7132 -3064.3287 C -690.0478 -3065.991 -692.0764 -3066.9954 -694.2741 -3066.9954 C -698.0555 -3066.9954 -701.1696 -3064.0443 -701.3832 -3060.2932 C -701.401 -3060.0443 -701.6056 -3059.8576 -701.8547 -3059.8754 C -702.1039 -3059.8932 -702.2907 -3060.0976 -702.2729 -3060.3465 C -702.0238 -3064.5687 -698.5182 -3067.8843 -694.2652 -3067.8843 C -691.8095 -3067.8843 -689.5406 -3066.7643 -688.037 -3064.9154 L -688.037 -3067.44 C -688.037 -3067.6887 -687.8412 -3067.8843 -687.5921 -3067.8843 C -687.343 -3067.8843 -687.1472 -3067.6887 -687.1472 -3067.44 L -687.1472 -3063.8843 C -687.1472 -3063.6354 -687.343 -3063.44 -687.5921 -3063.44 L -691.1511 -3063.44 C -691.4002 -3063.44 -691.59595 -3063.6354 -691.59595 -3063.8843 C -691.59595 -3064.1332 -691.4002 -3064.3287 -691.1511 -3064.3287 L -688.7043 -3064.3287 Z" fill="black"/>
      </g>
    </g>
  </g>
</svg>
